src/assets/icons/fa/hourglass-3.svg

<?xml version="1.0" encoding="utf-8"?>
<svg width="1792" height="1792" viewBox="0 0 1792 1792" xmlns="http://www.w3.org/2000/svg"><path d="M1536 128q0 261-106.5 461.5t-266.5 306.5q160 106 266.5 306.5t106.5 461.5h96q14 0 23 9t9 23v64q0 14-9 23t-23 9h-1472q-14 0-23-9t-9-23v-64q0-14 9-23t23-9h96q0-261 106.5-461.5t266.5-306.5q-160-106-266.5-306.5t-106.5-461.5h-96q-14 0-23-9t-9-23v-64q0-14 9-23t23-9h1472q14 0 23 9t9 23v64q0 14-9 23t-23 9h-96zm-534 708q77-29 149-92.5t129.5-152.5 92.5-210 35-253h-1024q0 132 35 253t92.5 210 129.5 152.5 149 92.5q19 7 30.5 23.5t11.5 36.5-11.5 36.5-30.5 23.5q-137 51-244 196h700q-107-145-244-196-19-7-30.5-23.5t-11.5-36.5 11.5-36.5 30.5-23.5z"/></svg>

<svg width="1792" height="1792" xmlns="http://www.w3.org/2000/svg"><path d="M1536 128q0 261-106.5 461.5T1163 896q160 106 266.5 306.5T1536 1664h96q14 0 23 9t9 23v64q0 14-9 23t-23 9H160q-14 0-23-9t-9-23v-64q0-14 9-23t23-9h96q0-261 106.5-461.5T629 896Q469 790 362.5 589.5T256 128h-96q-14 0-23-9t-9-23V32q0-14 9-23t23-9h1472q14 0 23 9t9 23v64q0 14-9 23t-23 9h-96zm-534 708q77-29 149-92.5T1280.5 591t92.5-210 35-253H384q0 132 35 253t92.5 210T641 743.5 790 836q19 7 30.5 23.5T832 896t-11.5 36.5T790 956q-137 51-244 196h700q-107-145-244-196-19-7-30.5-23.5T960 896t11.5-36.5T1002 836z"/></svg>
